app/dist/common/images/bushveld-minerals-ltd.svg

<svg height="18" viewBox="0 0 18 18" width="18" xmlns="http://www.w3.org/2000/svg"><path d="m0 0h18v18h-18z" fill="#f0f3fa"/><path d="m9 11.86.67-7.86.66.11-.33 4.53 2.85-3.29.46.54-3.31 3.81 4.5-2.14.28.72-4.61 2.14 4.83 1.08-.1.7-5.16-1.07-.07.72.33 1.93-.67.21zm0 0-.67-7.86-.66.11.33 4.53-2.85-3.29-.46.54 3.31 3.81-4.5-2.13-.28.72 4.61 2.14-4.83 1.07.1.7 5.16-1.07.07.72-.33 1.94.67.21z" fill="#97814b"/></svg>

<!-- by TradingView --><svg width="18" height="18" viewBox="0 0 18 18" xmlns="http://www.w3.org/2000/svg"><path fill="#F0F3FA" d="M0 0h18v18H0z"/><path d="M9 11.86 9.67 4l.66.11L10 8.64l2.85-3.29.46.54L10 9.7l4.5-2.14.28.72-4.61 2.14L15 11.5l-.1.7-5.16-1.07-.07.72.33 1.93-.67.21L9 11.86Zm0 0L8.33 4l-.66.11L8 8.64 5.15 5.35l-.46.54L8 9.7 3.5 7.57l-.28.72 4.61 2.14L3 11.5l.1.7 5.16-1.07.07.72L8 13.79l.67.21.33-2.14Z" fill="#97814B"/></svg>
